public/static/img/crypto/AAVE.svg

<svg width="48" height="48" viewBox="0 0 48 48" fill="none" xmlns="http://www.w3.org/2000/svg">
<g clip-path="url(#clip0_1169_4688)">
<path d="M0 23.9996C-4.69635e-08 27.1512 0.620767 30.2721 1.82686 33.1838C3.03295 36.0956 4.80075 38.7413 7.02931 40.9698C9.25788 43.1984 11.9036 44.9662 14.8153 46.1723C17.7271 47.3784 20.8479 47.9992 23.9996 47.9992C27.1512 47.9992 30.2721 47.3784 33.1838 46.1723C36.0956 44.9662 38.7413 43.1984 40.9698 40.9698C43.1984 38.7413 44.9662 36.0956 46.1723 33.1838C47.3784 30.2721 47.9992 27.1512 47.9992 23.9996C47.9992 20.8479 47.3784 17.7271 46.1723 14.8153C44.9662 11.9036 43.1984 9.25788 40.9698 7.02931C38.7413 4.80075 36.0956 3.03295 33.1838 1.82686C30.2721 0.620767 27.1512 0 23.9996 0C20.8479 0 17.7271 0.620767 14.8153 1.82686C11.9036 3.03295 9.25788 4.80075 7.02931 7.02931C4.80075 9.25788 3.03295 11.9036 1.82686 14.8153C0.620767 17.7271 -4.69635e-08 20.8479 0 23.9996Z" fill="#4DA2BD"/>
<path d="M15.6574 22.5088H22.5696C23.5184 22.5088 23.9928 22.9832 23.9928 23.932V23.9329C23.9928 24.8817 23.5184 25.3561 22.5696 25.3561H15.6574C14.7085 25.3561 14.2341 24.8817 14.2341 23.9329V23.932C14.2341 22.9832 14.7085 22.5088 15.6574 22.5088Z" fill="white"/>
<path d="M16.8131 33.4593L23.9928 15.7352L31.0921 33.4593C31.0921 33.4593 31.7068 35.6293 33.3062 35.2026C34.6354 34.814 34.2866 33.4593 34.2866 33.4593L26.3313 14.2984C25.4669 12.2156 22.5163 12.2156 21.6518 14.2984L13.6932 33.4593C13.6932 33.4593 13.3664 35.134 15.0224 35.261C16.3204 35.3457 16.8131 33.4593 16.8131 33.4593Z" fill="white"/>
</g>
<defs>
<clipPath id="clip0_1169_4688">
<rect width="48" height="48" fill="white"/>
</clipPath>
</defs>
</svg>

<svg width="48" height="48" fill="none" xmlns="http://www.w3.org/2000/svg"><g clip-path="url(#a)"><path d="M0 24a24 24 0 1 0 47.999 0A24 24 0 0 0 0 24Z" fill="#4DA2BD"/><path d="M15.657 22.509h6.913c.948 0 1.423.474 1.423 1.423 0 .95-.475 1.424-1.423 1.424h-6.913c-.948 0-1.423-.474-1.423-1.423v-.001c0-.949.475-1.423 1.423-1.423Z" fill="#fff"/><path d="m16.813 33.46 7.18-17.725 7.1 17.724s.614 2.17 2.213 1.744c1.33-.389.98-1.744.98-1.744L26.332 14.3c-.864-2.083-3.815-2.083-4.68 0l-7.958 19.16s-.327 1.675 1.33 1.802c1.297.085 1.79-1.802 1.79-1.802Z" fill="#fff"/></g><defs><clipPath id="a"><path fill="#fff" d="M0 0h48v48H0z"/></clipPath></defs></svg>
